!!!COM: Palestrina, Giovanni Perluigi da
!!!OPR: Missa In semidupl. maj. (II)
!!!OMD: Credo
!!!OTL: Et ex Patre
**kern	**kern	**kern	**kern	**kern
*Ibass	*Itenor	*Itenor	*Icalto	*Icant
!Bassus	!Tenor 2	!Tenor 1	!Altus	!Cantus
*clefF4	*clefGv2	*clefGv2	*clefG2	*clefG2
*k[b-]	*k[b-]	*k[b-]	*k[b-]	*k[b-]
*F:ion	*F:ion	*F:ion	*F:ion	*F:ion
*M4/2	*M4/2	*M4/2	*M4/2	*M4/2
=19	=19	=19	=19	=19
0r	0r	0r	1B-	1r
.	.	.	1F	2r
.	.	.	.	[2f
=20	=20	=20	=20	=20
1r	0r	0r	2B-	2f]
.	.	.	2c	2e
1BB-	.	.	1d	2f
.	.	.	.	2g
=21	=21	=21	=21	=21
1FF	2r	0r	2.c	1a
.	1F	.	.	.
.	.	.	4A	.
2BB-	.	.	2d	1g
2C	2E	.	4c	.
.	.	.	4B-	.
=22	=22	=22	=22	=22
2D	2F	0r	4A	2f
.	.	.	4B-	.
4C	2G	.	4c	2.e
4BB-	.	.	4d	.
2AA	1A	.	[1c	.
.	.	.	.	4c
2FF	.	.	.	[2f
=23	=23	=23	=23	=23
1C	1G	2r	1c]	2f]
.	.	2C	.	2e
1r	4F	2D	1A	2f
.	4G	.	.	.
.	4A	[2F	.	2f
.	4B-	.	.	.
=24	=24	=24	=24	=24
0r	2c	4F]	2r	2a
.	.	4F	.	.
.	2C	2E	2c	2.cc
.	1F	2D	2d	.
.	.	.	.	4b-
.	.	2D	[2f	2b-
=25	=25	=25	=25	=25
0r	2r	0C	4f]	2a
.	.	.	4e	.
.	2G	.	2e	4g
.	.	.	.	4f
.	2A	.	2.c	2.e
.	[2c	.	.	.
.	.	.	4d	4f
=26	=26	=26	=26	=26
0r	4c]	0r	4e	4g
.	4c	.	4c	4e
.	2B-	.	2.d	2.f
.	2A	.	.	.
.	.	.	4c	4e
.	2A	.	[2c	2c
=27	=27	=27	=27	=27
1r	1G	2r	2c]	2.d
.	.	2G	2B	.
.	.	.	.	4e
2r	2F	2A	1c	2f
2C	2E	[2c	.	2g
=28	=28	=28	=28	=28
2D	1D	4c]	1r	2f
.	.	4B-	.	.
2.F	.	2B-	.	2f
.	1C	2A	2r	2a
4E	.	.	.	.
2E	.	2G	2c	[2cc
=29	=29	=29	=29	=29
2D	2r	2F	2d	2cc]
2D	2F	2D	2f	2b
2C	2G	2E	2e	2cc
[2BB-	[2B-	2F	[2d	[2f
=30	=30	=30	=30	=30
4BB-]	4B-]	2F	2d]	4f]
4BB-	4B-	.	.	4g
2FF	2A	2c	1f	4a
.	.	.	.	4f
2C	2G	2.c	.	2g
2C	2G	.	2e	2g
.	.	4c	.	.
=31	=31	=31	=31	=31
[0FF	[0F	[0c	[0f	[0a
=32	=32	=32	=32	=32
0FF]	0F]	0c]	0f]	0a]
*-	*-	*-	*-	*-
!!!CDT: 1525/^1526/-1594/2/2
!!!OCY: Italia
!!!AGN: Mass (Paraphrase)
!!!AST: renaissance, vocal
!!!ASW: Gregorian Mass
!!!PWK: Masses, Book Mantuan II
!!!RNB: Cadence finals: C
!!!YOR: Le Opere Complete, v. 19, p. 87
!!!YOO: Rome, Italy: Fratelli Scalera
!!!END: 1992//
!!!EED: John Miller
!!!YEC: Copyright 2000, John Miller
!!!YEN: United States of America
!!!YEM: Rights to all derivative electronic formats reserved.
!!!YEM: Refer to licensing agreement for further details.
!!!YEM: This file must be accompanied by the licensing agreement.
!!!YEM: A copy of the licensing agreement may be found at http://www.music-cog.ohio-state.edu/HumdrumDatabases/Palestrina/license.txt
!!!EMD: converted to Humdrum by Bret Aarden
